X: 305566
T: JACKSON'S HORNPIPE
C:
%R: hornpipe, reel
B: Elias Howe "The Musician's Companion" Part 3 1844 p.63 #2
S: http://imslp.org/wiki/The_Musician's_Companion_(Howe,_Elias)
S: https://archive.org/stream/firstthirdpartof03howe/#page/66/mode/1up
Z: 2015 John Chambers <jc:trillian.mit.edu>
M: C
L: 1/8
K: F
% - - - - - - - - - - - - - - - - - - - - - - - - -
C2 |\
FAcA BGFE | F2F2 F2GA |\
BGAB dBcA | BdcA BGFE |\
FGcB AGFE | F2F2 F2fg | afge fdc=B | c2c2c2 :|
|: de |\
fedc BAGF | [c2A2][c2A2] [c2A2]de |\
fgaf efge | fgaf fedc |\
fedc BAGF | dBcA G3A |\
[BG][cA][dB][BG] [AF]GFE | F2F2F2 :|
% - - - - - - - - - - - - - - - - - - - - - - - - -


